packages/foundations/assets/icons/functional/images/transportation/boat_14.svg

<svg width="14" height="14" viewBox="0 0 14 14" fill="none" xmlns="http://www.w3.org/2000/svg">
<g clip-path="url(#clip0_187_861)">
<path fill-rule="evenodd" clip-rule="evenodd" d="M4.33637 9.01148C4.60638 9.47509 4.9027 10.0639 5.36482 10.0638C5.82693 10.0636 6.12341 9.47407 6.39351 9.01106C6.66361 8.54805 7.3326 8.54801 7.60275 9.01099C7.8729 9.47397 8.11707 10.0638 8.63145 10.0638C9.14583 10.0638 9.39017 9.47373 9.66024 9.01096C9.9303 8.54819 10.5989 8.54802 10.8692 9.01066C11.1395 9.4733 11.5112 10.0638 11.898 10.0638C12.2847 10.0638 12.5981 10.3772 12.5981 10.7638C12.5981 11.1228 12.2958 11.4679 11.898 11.4637C11.3101 11.4574 10.7655 11.1502 10.2643 10.5419C9.7448 11.1528 9.2005 11.4601 8.63145 11.4638C8.06241 11.4675 7.51797 11.1604 6.99815 10.5426C6.44912 11.1567 5.90468 11.4638 5.36482 11.4638C4.82495 11.4638 4.28043 11.1569 3.73125 10.5433C3.20155 11.1569 2.65718 11.4638 2.09815 11.4638C1.71155 11.4638 1.39815 11.1504 1.39815 10.7638C1.39815 10.3772 1.71155 10.0638 2.09815 10.0638C2.48628 10.0638 2.85658 9.47509 3.1266 9.01148C3.39661 8.54788 4.06636 8.54788 4.33637 9.01148ZM6.7137 2.57456C7.5376 2.69839 8.47242 3.36293 9.51815 4.5682L11.7687 4.14478C12.3308 4.039 12.8176 4.63703 12.5048 5.18204C12.0394 5.99261 11.5728 6.80297 11.1048 7.61311C10.9118 7.94813 10.4838 8.06331 10.1488 7.87039C9.83773 7.69124 9.69219 7.26378 9.89154 6.91445C10.1034 6.54321 10.3168 6.17222 10.5317 5.80148L2.79815 7.26378V7.96378C2.79815 8.35038 2.48475 8.66378 2.09815 8.66378C1.73916 8.66378 1.40064 8.37795 1.39815 7.96378C1.39674 7.73046 1.39674 7.49713 1.39815 7.26378C1.39815 6.5564 1.75557 6.04105 2.56916 5.87585C2.77138 5.83864 2.97323 5.8008 3.1747 5.76234C3.38156 4.45529 3.49551 3.70945 3.51655 3.52481C3.54812 3.24785 3.76371 2.97746 4.08148 2.91637C4.7087 2.79579 5.33694 2.6766 5.96621 2.55881C6.21127 2.51943 6.45606 2.53584 6.7137 2.57456ZM6.20785 3.93765C6.03242 3.96968 5.57859 4.05568 4.84635 4.19568L4.66365 5.4817L7.89552 4.87329C7.22004 4.2354 6.81184 4.0186 6.45109 3.94971C6.37764 3.93568 6.32265 3.92006 6.20785 3.93765Z" fill="#1A1C1F"/>
</g>
<defs>
<clipPath id="clip0_187_861">
<rect width="14" height="14" fill="white"/>
</clipPath>
</defs>
</svg>

<svg xmlns="http://www.w3.org/2000/svg" width="14" height="14" fill="none"><g clip-path="url(#a)"><path fill="#1A1C1F" fill-rule="evenodd" d="M4.336 9.011c.27.464.567 1.053 1.029 1.053s.758-.59 1.029-1.053a.7.7 0 0 1 1.209 0c.27.463.514 1.053 1.028 1.053.515 0 .76-.59 1.03-1.053a.7.7 0 0 1 1.208 0c.27.462.642 1.053 1.029 1.053a.7.7 0 0 1 .7.7.71.71 0 0 1-.7.7q-.882-.01-1.634-.922-.779.915-1.633.922-.853.005-1.633-.921-.823.92-1.633.92t-1.634-.92q-.795.92-1.633.92a.7.7 0 1 1 0-1.4c.388 0 .759-.588 1.029-1.052a.7.7 0 0 1 1.21 0m2.378-6.436q1.236.185 2.804 1.993l2.25-.423c.563-.106 1.05.492.737 1.037q-.698 1.215-1.4 2.431a.7.7 0 0 1-.956.257.71.71 0 0 1-.257-.956q.317-.556.64-1.113L2.798 7.264v.7a.7.7 0 1 1-1.4 0 58 58 0 0 1 0-.7c0-.708.358-1.223 1.171-1.388l.606-.114q.31-1.96.342-2.237a.71.71 0 0 1 .564-.609q.942-.18 1.885-.357c.245-.04.49-.023.748.016m-.506 1.363q-.264.048-1.362.258l-.182 1.286 3.232-.609C7.22 4.235 6.812 4.02 6.45 3.95c-.073-.014-.128-.03-.243-.012" clip-rule="evenodd"/></g><defs><clipPath id="a"><path fill="#fff" d="M0 0h14v14H0z"/></clipPath></defs></svg>
